X:1
T:Title
L:1/8
Q:1/4=100
M:2/4
K:C
V:1 treble nm="Grand Piano"
V:1
 z A AG |[M:3/4] AG FE DD |[M:2/4] E2 F2 | E4 | z A AG | AG BA/G/ | A3 G | AG BA/G/ | A4 | z A AG | %10
[M:3/4] AG FE DD |[M:2/4] E2 F2 | E4 | z A AG | AG BA/G/ | A3 G | AG BA/G/ | AB c2 | z c cB | %19
 cB AG- | GA GF | E4 | z c cB | cB AG- | GA GF | E4 | cc G2 | ED ED | DC CB, | DC C2- | CG cc | %31
 GG A/G/A/B/ |[M:3/4] AG G4 |[M:2/4] cc G2 | ED ED | DC CB, | DC C2- | CG cc | GG A/G/A/B/ | %39
[M:3/4] AG G3 G |[M:2/4] cc A2 | Bc d>d | d3 G | ed cB | A^G B>A | A4 | z E EE | ^G4 | z E EE | %49
 A4 | z c B>A | A4 |] %52

